X:5
T:Colonel Harcourts Reel. Pn1801.05
M:C
L:1/8
Q:1/4=140
C:"405"
W:Set and change sides and back again .| lead down the middle and poussette
B:Preston 24 for 1801
Z:Village Music Project, John Adams, 2017
K:G
F|"_p"(G>g)(f>e) (d>B)(G>B)|"^tr""_Cres"(A>G)(A>B) (A>F)(D>F)|\
"_p"(G>g)(f>e) (d>B)(G>B)|"_rf"(F>A)(^c>d)D2(D>F)|
"_mf"(G>{a}g)(f>e) (d>B)(G>B)|"_rf"(e>g)(e>c) (B>d)(B>G)|\
"_rf"(E>A)(B>c) (e>d) "_dim"(F>A)|[.G,2.G2][.B2.B,2][G,3G3]:|
|:"_p"B|(c>G) (e>G) (B>d) (G>B)|"^tr""_Cres"(A>G)(A>B) (A>D)(F>D)|\
"_p"(c>G)(e>G) (B>d)(G>d)|(e>g)(f>a) (g2G)z/"_p"B/ & G2c2B2&)|
(c>G)(e>G) (B>d)(G>B)|"^tr""_rf"(A>G)(A>B) "_dim"(A>D)(F>D)|\
"_ff"(E>G)(E>C) (B,>D)(G>B)|(E>c)(A>F) [G3G,3]:|
